X:1
T:Title
%%score { 1 | 2 }
L:1/8
M:3/4
K:F
V:1 treble nm="Grand Piano"
V:2 bass 
V:1
 z2 z2[Q:1/4=100] FG | A3 A BB | c2 d2 dd | [Ac]3 [FA] [EG][DF] | [EG]4 FG | A3 A BB | c2 d2 dd | %7
[M:13/16] [Ac]/-[Ac]/-[Ac]-<[Ac]AG3/2F |[M:3/4] F4 [Ac][Ac] | [Bd]3 [Bd] [Bd][Bd] | %10
[M:13/16] [Ac]/-[Ac]/-[Ac]-<[Ac]A3/2GF |[M:3/4] F2 F2 [DG]2 | [^CEA]4 AB | c3 f ed | %14
 [Ac]2 [FA]2 [CF][DG] | %15
 [FA]3 [A,C] [CFA][B,EG][Q:1/4=99][Q:1/4=97][Q:1/4=96][Q:1/4=94][Q:1/4=93][Q:1/4=91][Q:1/4=90][Q:1/4=88][Q:1/4=87][Q:1/4=85][Q:1/4=84][Q:1/4=82][Q:1/4=81][Q:1/4=79][Q:1/4=78][Q:1/4=76] | %16
[M:2/4] [A,CF]4 |] %17
V:2
 z2 z2 [F,A,][F,B,F] | [F,CF]3 [F,DF] [G,CG][G,CG] | [A,CF]2 [B,B]2 [B,DB][B,B] | %3
 [F,C]3 [F,C] [C,C][D,A,] | [C,C]4 [F,A,][K:treble][F,B,F] | [F,CF]3 [F,CF] [G,CE][G,CG] | %6
 [A,CF]2 [B,DB]2 [B,DB][B,DB] | %7
[M:13/16][K:bass] [F,C]/-[F,C]/-[F,C]-<[F,C][F,CF][C,B,C]3/2[F,B,C] |[M:3/4] [F,C]4 [F,A,][F,A,] | %9
 [B,,B,]3 [B,,B,] [B,,B,][B,,B,] |[M:13/16] [F,C]/-[F,C]/-[F,C]-<[F,C][F,CF]3/2[F,B,E][F,A,C] | %11
[M:3/4] [D,A,D]2 [D,A,D]2 [B,,A,]2 | [A,,E,]4[K:treble] [F,^CF][G,CE] | %13
 [A,CF]3 [F,DF] [F,CF][K:bass][F,B,F] | [F,A,]2 [F,C]2 [A,,A,][B,,B,] | [C,C]3 C, C,C, | %16
[M:2/4] F,4 |] %17

